src/img/icons/cross-key.svg

<?xml version="1.0" encoding="UTF-8"?>
<svg width="31px" height="31px" viewBox="0 0 31 31" version="1.1" xmlns="http://www.w3.org/2000/svg" xmlns:xlink="http://www.w3.org/1999/xlink">
    <!-- Generator: Sketch 50 (54983) - http://www.bohemiancoding.com/sketch -->
    <title>in-key</title>
    <desc>Created with Sketch.</desc>
    <defs></defs>
    <g id="Welcome" stroke="none" stroke-width="1" fill="none" fill-rule="evenodd">
        <g id="2-3-profile" transform="translate(-199.000000, -398.000000)">
            <g id="Group-7" transform="translate(-80.000000, 7.000000)">
                <g id="Group-5" transform="translate(248.000000, 370.000000)">
                    <g id="Group-6" transform="translate(32.000000, 22.000000)">
                        <g id="Group-8">
                            <g id="in-key">
                                <circle id="Oval" stroke="#FFFFFF" stroke-width="2" cx="14.5" cy="14.5" r="14.5"></circle>
                                <path d="M6,5 L23,25" id="Line" stroke="#FFFFFF" stroke-width="2" stroke-linecap="square"></path>
                                <path d="M15.9881788,17.1387599 L14.4516603,15.6017329 L15.535542,14.5168926 C17.4566439,15.5528242 19.8926892,15.2811765 21.5165761,13.659176 C23.4944746,11.6776391 23.4944746,8.46484609 21.5165761,6.48608104 C19.5361936,4.50463965 16.3247238,4.50463965 14.344198,6.48608104 C12.7230817,8.10817708 12.4529036,10.5483226 13.4876627,12.4675393 L6.42176041,19.5389815 C5.85794994,20.1023971 5.86087835,21.0221149 6.42176041,21.5883348 C6.68123421,21.8502779 7.03578714,22.0214633 7.51777526,22.0214633 C7.99976337,22.0214633 8.1619762,21.8650846 8.5000684,21.5404231 C8.8381606,21.2157615 8.94337986,21.0953428 9.32997981,20.7280076 L10.8662595,22.2652257 C11.1493828,22.5482956 11.6076729,22.5482956 11.8905573,22.2652257 L12.9148552,21.2405729 C13.1983129,20.9575508 13.1983129,20.4989423 12.9148552,20.2159202 L11.3784801,18.6787021 L12.4026346,17.6508951 L13.9396786,19.1910285 C14.2226108,19.4740983 14.681092,19.4740983 14.9639765,19.1910285 L15.9881788,18.1663757 C16.2710633,17.8803427 16.2710633,17.4248884 15.9881788,17.1387599 Z M16.3787391,8.55216141 C17.2281924,7.70299956 18.6075023,7.70299956 19.4569557,8.55216141 C20.3032537,9.39850356 20.3032537,10.7798253 19.4569557,11.6263108 C18.6075023,12.472653 17.2281924,12.472653 16.3787391,11.6263108 C15.531963,10.7798731 15.531963,9.39855135 16.3787391,8.55216141 Z" id="Shape" fill="#FFFFFF" fill-rule="nonzero"></path>
                            </g>
                        </g>
                    </g>
                </g>
            </g>
        </g>
    </g>
</svg>

<svg width="31" height="31" xmlns="http://www.w3.org/2000/svg"><g transform="translate(1 1)" fill="none" fill-rule="evenodd"><circle stroke="#FFF" stroke-width="2" cx="14.5" cy="14.5" r="14.5"/><path d="M6 5l17 20" stroke="#FFF" stroke-width="2" stroke-linecap="square"/><path d="M15.988 17.139l-1.536-1.537 1.084-1.085c1.92 1.036 4.357.764 5.98-.858a5.077 5.077 0 000-7.173 5.07 5.07 0 00-7.172 0c-1.62 1.622-1.891 4.062-.856 5.982l-7.066 7.071a1.456 1.456 0 000 2.05c.26.261.614.432 1.096.432.482 0 .644-.156.982-.48.338-.325.443-.446.83-.813l1.536 1.537a.724.724 0 001.025 0l1.024-1.024a.724.724 0 000-1.025l-1.537-1.537 1.025-1.028 1.537 1.54a.724.724 0 001.024 0l1.024-1.025a.728.728 0 000-1.027zm.39-8.587a2.18 2.18 0 013.079 0 2.178 2.178 0 010 3.074 2.183 2.183 0 01-3.078 0 2.178 2.178 0 010-3.074z" fill="#FFF" fill-rule="nonzero"/></g></svg>
